X:1
T:Hullabaloo Belay
M:6/8
L:1/8
K:G
 B| E2 F G2 A| B2 c B3| eee e2 d| B6| eee e2 d| e2 d B2 G| E2 F GGA|\
 B2 c B3| BAG F2 G| E3- E2||
